;FLAVOR:Marlin
;TIME:8270
;Filament used: 8.11676m
;Layer height: 0.2
;MINX:63.97
;MINY:57.158
;MINZ:0.15
;MAXX:153.444
;MAXY:149.179
;MAXZ:10.75
;Generated with Cura_SteamEngine 4.6.2
M140 S60
M105
M190 S60
M104 S200
M105
M109 S200
M82 ;absolute extrusion mode
G21 ;metric values
G90 ;absolute positioning
M82 ;set extruder to absolute mode
M107 ;start with the fan off
G28 X0 Y0 ;move X/Y to min endstops
G28 Z0 ;move Z to min endstops
G1 Z15.0 F120 ;move the platform down 15mm
G92 E0 ;zero the extruded length
G1 F200 E3 ;extrude 3mm of feed stock
G92 E0 ;zero the extruded length again
G1 F120
G0 Y20 F120
M117 Printing...
G5
G92 E0
G92 E0
G1 F3600 E-4
;LAYER_COUNT:54
;LAYER:0
M107
G0 F3600 X89.292 Y57.946 Z0.15
;TYPE:SKIRT
G1 F3600 E0
G1 F2100 X91.99 Y58.331 E0.05439
G1 X94.744 Y58.645 E0.1097
G1 X97.478 Y58.878 E0.16446
G1 X100.199 Y59.033 E0.21885
G1 X102.953 Y59.112 E0.27383
G1 X105.672 Y59.114 E0.32809
G1 X108.425 Y59.037 E0.38305
G1 X111.141 Y58.884 E0.43734
G1 X114.157 Y58.633 E0.49773
G1 X114.746 Y58.613 E0.50949
G1 X146.634 Y58.613 E1.14585
G1 X147.332 Y58.623 E1.15978
G1 X147.832 Y58.67 E1.16981
G1 X148.319 Y58.796 E1.17985
G1 X148.779 Y58.997 E1.18986
G1 X149.202 Y59.269 E1.1999
G1 X149.739 Y59.79 E1.21483
G1 X150.39 Y60.591 E1.23543
G1 X150.72 Y61.01 E1.24607
G1 X151.11 Y61.589 E1.26
G1 X151.329 Y62.1 E1.2711
G1 X152.102 Y64.603 E1.32338
G1 X152.289 Y65.155 E1.33501
G1 X152.642 Y66.248 E1.35793
G1 X152.758 Y66.737 E1.36796
G1 X152.804 Y67.451 E1.38224
G1 X152.804 Y115.431 E2.33973
G1 X152.794 Y116.181 E2.3547
G1 X152.763 Y116.936 E2.36978
G1 X152.685 Y119.715 E2.42526
G1 X152.708 Y123.587 E2.50253
G1 X152.721 Y124.142 E2.51361
G1 X152.721 Y124.894 E2.52861
G1 X152.713 Y125.465 E2.54001
G1 X152.695 Y125.967 E2.55003
G1 X152.636 Y126.466 E2.56006
G1 X152.499 Y126.949 E2.57008
G1 X152.287 Y127.405 E2.58012
G1 X151.98 Y127.853 E2.59095
G1 X151.24 Y128.755 E2.61424
G1 X149.301 Y131.161 E2.6759
G1 X147.656 Y133.337 E2.73034
G1 X146.063 Y135.573 E2.78513
G1 X144.535 Y137.854 E2.83992
G1 X143.246 Y139.892 E2.88804
G1 X142.702 Y140.778 E2.90879
G1 X142.405 Y141.183 E2.91881
G1 X142.048 Y141.537 E2.92884
G1 X141.64 Y141.829 E2.93885
G1 X141.19 Y142.053 E2.94889
G1 X140.711 Y142.203 E2.9589
G1 X140.152 Y142.279 E2.97016
G1 X139.34 Y142.301 E2.98637
G1 X137.252 Y142.337 E3.02805
G1 X134.536 Y142.452 E3.08229
G1 X131.823 Y142.644 E3.13657
G1 X129.046 Y142.92 E3.19226
G1 X126.389 Y143.26 E3.24572
G1 X123.647 Y143.691 E3.30111
G1 X120.949 Y144.192 E3.35587
G1 X118.308 Y144.76 E3.40978
G1 X115.635 Y145.415 E3.4647
G1 X112.993 Y146.143 E3.51939
G1 X110.362 Y146.948 E3.5743
G1 X107.109 Y148.057 E3.64288
G1 X106.327 Y148.339 E3.65947
G1 X105.843 Y148.471 E3.66948
G1 X105.329 Y148.525 E3.6798
G1 X104.768 Y148.538 E3.691
G1 X70.63 Y148.539 E4.37226
G1 X69.932 Y148.529 E4.38619
G1 X69.432 Y148.482 E4.39621
G1 X68.945 Y148.356 E4.40625
G1 X68.485 Y148.155 E4.41627
G1 X68.062 Y147.883 E4.4263
G1 X67.616 Y147.469 E4.43845
G1 X67.262 Y147.071 E4.44908
G1 X66.764 Y146.483 E4.46445
G1 X66.31 Y145.929 E4.47875
G1 X65.927 Y145.359 E4.49245
G1 X65.728 Y144.898 E4.50247
G1 X65.572 Y144.17 E4.51733
G1 X65.43 Y142.274 E4.55527
G1 X65.25 Y139.957 E4.60165
G1 X65.202 Y139.215 E4.61649
G1 X65.228 Y138.201 E4.63673
G1 X65.386 Y135.578 E4.68917
G1 X65.442 Y134.823 E4.70428
G1 X65.598 Y133.28 E4.73523
G1 X65.965 Y130.631 E4.7886
G1 X66.267 Y127.928 E4.84287
G1 X66.496 Y125.18 E4.8979
G1 X66.645 Y122.459 E4.95228
G1 X66.725 Y118.521 E5.03089
G1 X66.725 Y86.071 E5.67846
G1 X66.685 Y83.27 E5.73436
G1 X66.57 Y80.554 E5.78861
G1 X66.377 Y77.836 E5.84299
G1 X66.101 Y75.047 E5.89892
G1 X65.762 Y72.4 E5.95218
G1 X65.335 Y69.682 E6.00708
G1 X64.817 Y66.976 E6.06206
G1 X64.678 Y66.214 E6.07752
G1 X64.615 Y65.436 E6.0931
G1 X64.61 Y64.038 E6.121
G1 X64.615 Y63.383 E6.13407
G1 X64.634 Y62.531 E6.15107
G1 X64.754 Y61.656 E6.1687
G1 X64.923 Y61.183 E6.17872
G1 X65.165 Y60.742 E6.18876
G1 X65.473 Y60.346 E6.19877
G1 X65.84 Y60.003 E6.2088
G1 X66.257 Y59.723 E6.21882
G1 X66.713 Y59.512 E6.22885
G1 X67.197 Y59.376 E6.23888
G1 X67.744 Y59.318 E6.24986
G1 X70.694 Y59.26 E6.30874
G1 X73.448 Y59.143 E6.36375
G1 X76.161 Y58.951 E6.41802
G1 X78.938 Y58.675 E6.47372
G1 X81.611 Y58.333 E6.52749
G1 X84.689 Y57.846 E6.58968
G1 X85.413 Y57.799 E6.60416
G1 X87.51 Y57.798 E6.64601
G1 X88.208 Y57.808 E6.65994
G1 X89.292 Y57.946 E6.68175
G0 F3600 X89.308 Y57.625
G1 F2100 X92.036 Y58.014 E6.73674
G1 X94.806 Y58.33 E6.79237
G1 X97.488 Y58.559 E6.84609
G1 X100.191 Y58.713 E6.90012
G1 X102.963 Y58.792 E6.95546
G1 X105.663 Y58.794 E7.00934
G1 X108.434 Y58.717 E7.06466
G1 X111.094 Y58.567 E7.11783
G1 X112.727 Y58.428 E7.15054
G1 X114.131 Y58.314 E7.17865
G1 X114.642 Y58.295 E7.18885
G1 X146.639 Y58.293 E7.82739
G1 X147.337 Y58.303 E7.84132
G1 X147.862 Y58.351 E7.85184
G1 X148.374 Y58.477 E7.86236
G1 X148.861 Y58.679 E7.87288
G1 X149.312 Y58.953 E7.88341
G1 X149.716 Y59.291 E7.89392
G1 X150.639 Y60.389 E7.92255
G1 X150.971 Y60.812 E7.93328
G1 X151.38 Y61.415 E7.94782
G1 X151.633 Y62.001 E7.96056
G1 X152.404 Y64.498 E8.01271
G1 X152.592 Y65.052 E8.02438
G1 X152.947 Y66.15 E8.04741
G1 X153.07 Y66.662 E8.05792
G1 X153.123 Y67.441 E8.0735
G1 X153.124 Y115.431 E9.03119
G1 X153.114 Y116.185 E9.04624
G1 X153.083 Y116.945 E9.06142
G1 X153.005 Y119.722 E9.11686
G1 X153.028 Y123.577 E9.19379
G1 X153.041 Y124.142 E9.20507
G1 X153.041 Y124.899 E9.22018
G1 X153.033 Y125.47 E9.23158
G1 X153.015 Y125.979 E9.24174
G1 X152.955 Y126.503 E9.25226
G1 X152.817 Y127.012 E9.26279
G1 X152.604 Y127.494 E9.27331
G1 X152.227 Y128.056 E9.28681
G1 X151.487 Y128.958 E9.31009
G1 X149.545 Y131.367 E9.37184
G1 X147.928 Y133.506 E9.42535
G1 X146.318 Y135.768 E9.48076
G1 X144.811 Y138.016 E9.53477
G1 X143.497 Y140.095 E9.58385
G1 X142.974 Y140.945 E9.60377
G1 X142.665 Y141.372 E9.61429
G1 X142.294 Y141.747 E9.62481
G1 X141.871 Y142.062 E9.63534
G1 X141.406 Y142.31 E9.64585
G1 X140.908 Y142.484 E9.65638
G1 X140.166 Y142.598 E9.67136
G1 X139.322 Y142.621 E9.68821
G1 X137.311 Y142.655 E9.72835
G1 X134.537 Y142.773 E9.78376
G1 X131.838 Y142.964 E9.83775
G1 X129.122 Y143.233 E9.89222
G1 X126.405 Y143.581 E9.94688
G1 X123.691 Y144.007 E10.00171
G1 X121.033 Y144.501 E10.05566
G1 X118.382 Y145.072 E10.10978
G1 X115.694 Y145.731 E10.16501
G1 X113.102 Y146.444 E10.21865
G1 X110.458 Y147.253 E10.27383
G1 X107.22 Y148.357 E10.3421
G1 X106.436 Y148.64 E10.35874
G1 X105.928 Y148.781 E10.36926
G1 X105.337 Y148.845 E10.38112
G1 X104.776 Y148.858 E10.39232
G1 X70.625 Y148.859 E11.07384
G1 X69.927 Y148.849 E11.08777
G1 X69.402 Y148.801 E11.09829
G1 X68.89 Y148.675 E11.10881
G1 X68.403 Y148.473 E11.11933
G1 X67.952 Y148.199 E11.12986
G1 X67.377 Y147.682 E11.1453
G1 X67.023 Y147.284 E11.15593
G1 X66.519 Y146.689 E11.17149
G1 X66.062 Y146.131 E11.18588
G1 X65.657 Y145.532 E11.20031
G1 X65.442 Y145.051 E11.21082
G1 X65.303 Y144.542 E11.22135
G1 X65.226 Y143.896 E11.23434
G1 X65.111 Y142.297 E11.26633
G1 X64.931 Y139.982 E11.31267
G1 X64.883 Y139.236 E11.32758
G1 X64.908 Y138.187 E11.34852
G1 X65.066 Y135.558 E11.40108
G1 X65.123 Y134.8 E11.41625
G1 X65.28 Y133.247 E11.4474
G1 X65.648 Y130.587 E11.50099
G1 X65.947 Y127.905 E11.55484
G1 X66.175 Y125.171 E11.60959
G1 X66.326 Y122.434 E11.6643
G1 X66.405 Y118.521 E11.7424
G1 X66.405 Y86.075 E12.3899
G1 X66.366 Y83.289 E12.4455
G1 X66.249 Y80.552 E12.50017
G1 X66.058 Y77.854 E12.55415
G1 X65.789 Y75.136 E12.60865
G1 X65.441 Y72.421 E12.66327
G1 X65.018 Y69.73 E12.71764
G1 X64.503 Y67.036 E12.77237
G1 X64.363 Y66.271 E12.78789
G1 X64.295 Y65.45 E12.80433
G1 X64.29 Y64.038 E12.83251
G1 X64.295 Y63.38 E12.84564
G1 X64.314 Y62.524 E12.86273
G1 X64.345 Y62.117 E12.87087
G1 X64.439 Y61.598 E12.8814
G1 X64.61 Y61.1 E12.89191
G1 X64.855 Y60.633 E12.90243
G1 X65.167 Y60.208 E12.91295
G1 X65.541 Y59.835 E12.92349
G1 X65.966 Y59.523 E12.93401
G1 X66.433 Y59.279 E12.94453
G1 X66.932 Y59.109 E12.95505
G1 X67.451 Y59.015 E12.96558
G1 X70.674 Y58.94 E13.02991
G1 X73.447 Y58.822 E13.0853
G1 X76.146 Y58.631 E13.1393
G1 X78.862 Y58.362 E13.19376
G1 X81.589 Y58.013 E13.24863
G1 X84.639 Y57.53 E13.31025
G1 X85.404 Y57.479 E13.32555
G1 X87.515 Y57.478 E13.36768
G1 X88.213 Y57.488 E13.38161
G1 X89.308 Y57.625 E13.40363
G0 F3600 X88.749 Y57.213
G1 F2100 X89.403 Y57.315 E13.41684
G1 X92.117 Y57.702 E13.47155
G1 X94.797 Y58.008 E13.52538
G1 X97.501 Y58.238 E13.57953
G1 X100.253 Y58.395 E13.63454
G1 X102.936 Y58.472 E13.68811
G1 X105.655 Y58.474 E13.74237
G1 X108.407 Y58.397 E13.79731
G1 X111.119 Y58.244 E13.85152
G1 X114.105 Y57.995 E13.91131
G1 X114.632 Y57.975 E13.92184
G1 X146.643 Y57.973 E14.56065
G1 X147.341 Y57.983 E14.57458
G1 X147.89 Y58.031 E14.58558
G1 X148.427 Y58.158 E14.59659
G1 X148.939 Y58.361 E14.60758
G1 X149.416 Y58.636 E14.61857
G1 X149.849 Y58.977 E14.62957
G1 X150.236 Y59.386 E14.6408
G1 X150.887 Y60.187 E14.6614
G1 X151.223 Y60.614 E14.67225
G1 X151.649 Y61.24 E14.68736
G1 X151.937 Y61.902 E14.70176
G1 X152.71 Y64.402 E14.75398
G1 X152.895 Y64.949 E14.76551
G1 X153.251 Y66.051 E14.78862
G1 X153.382 Y66.587 E14.79963
G1 X153.433 Y67.103 E14.80998
G1 X153.444 Y115.431 E15.77441
G1 X153.434 Y116.19 E15.78956
G1 X153.401 Y117.008 E15.8059
G1 X153.325 Y119.729 E15.86022
G1 X153.348 Y123.566 E15.93679
G1 X153.361 Y124.142 E15.94829
G1 X153.361 Y124.903 E15.96348
G1 X153.353 Y125.474 E15.97487
G1 X153.334 Y125.991 E15.9852
G1 X153.274 Y126.539 E15.9962
G1 X153.135 Y127.072 E16.00719
G1 X152.92 Y127.579 E16.01818
G1 X152.475 Y128.259 E16.0344
G1 X151.735 Y129.161 E16.05768
G1 X149.79 Y131.573 E16.11952
G1 X148.171 Y133.715 E16.1731
G1 X146.611 Y135.906 E16.22677
G1 X145.058 Y138.223 E16.28244
G1 X143.792 Y140.227 E16.32974
G1 X143.247 Y141.113 E16.3505
G1 X142.925 Y141.56 E16.36149
G1 X142.541 Y141.956 E16.3725
G1 X142.105 Y142.292 E16.38349
G1 X141.625 Y142.562 E16.39448
G1 X141.11 Y142.759 E16.40548
G1 X140.572 Y142.88 E16.41648
G1 X139.846 Y142.933 E16.43101
G1 X137.329 Y142.975 E16.48125
G1 X134.54 Y143.093 E16.53696
G1 X131.857 Y143.283 E16.59063
G1 X129.155 Y143.551 E16.64482
G1 X126.465 Y143.895 E16.69894
G1 X123.758 Y144.321 E16.75362
G1 X121.096 Y144.816 E16.80766
G1 X118.449 Y145.385 E16.86169
G1 X115.786 Y146.038 E16.9164
G1 X113.169 Y146.758 E16.97057
G1 X110.573 Y147.553 E17.02475
G1 X107.296 Y148.67 E17.09384
G1 X106.544 Y148.941 E17.10979
G1 X106.014 Y149.09 E17.12078
G1 X105.344 Y149.165 E17.13423
G1 X104.783 Y149.178 E17.14543
G1 X70.621 Y149.179 E17.82717
G1 X69.923 Y149.169 E17.8411
G1 X69.374 Y149.121 E17.8521
G1 X68.837 Y148.994 E17.86311
G1 X68.325 Y148.791 E17.8741
G1 X67.848 Y148.516 E17.88509
G1 X67.415 Y148.175 E17.89609
G1 X66.784 Y147.496 E17.91459
G1 X66.275 Y146.896 E17.93029
G1 X65.814 Y146.334 E17.9448
G1 X65.387 Y145.706 E17.95995
G1 X65.158 Y145.205 E17.97094
G1 X65.004 Y144.676 E17.98194
G1 X64.907 Y143.926 E17.99703
G1 X64.794 Y142.344 E18.02868
G1 X64.611 Y140.007 E18.07546
G1 X64.564 Y139.256 E18.09048
G1 X64.588 Y138.173 E18.1121
G1 X64.747 Y135.539 E18.16476
G1 X64.804 Y134.776 E18.18002
G1 X64.962 Y133.215 E18.21133
G1 X65.326 Y130.576 E18.2645
G1 X65.631 Y127.842 E18.3194
G1 X65.858 Y125.125 E18.37381
G1 X66.005 Y122.44 E18.42747
G1 X66.085 Y118.494 E18.50623
G1 X66.085 Y86.08 E19.15309
G1 X66.046 Y83.306 E19.20845
G1 X65.929 Y80.555 E19.2634
G1 X65.739 Y77.873 E19.31706
G1 X65.471 Y75.173 E19.3712
G1 X65.126 Y72.476 E19.42546
G1 X64.702 Y69.777 E19.47998
G1 X64.189 Y67.096 E19.53446
G1 X64.049 Y66.329 E19.55002
G1 X63.991 Y65.811 E19.56042
G1 X63.972 Y65.306 E19.5705
G1 X63.97 Y64.039 E19.59579
G1 X63.975 Y63.378 E19.60898
G1 X63.994 Y62.517 E19.62617
G1 X64.026 Y62.084 E19.63483
G1 X64.123 Y61.541 E19.64584
G1 X64.297 Y61.019 E19.65682
G1 X64.545 Y60.527 E19.66781
G1 X64.861 Y60.075 E19.67882
G1 X65.239 Y59.675 E19.6898
G1 X65.672 Y59.333 E19.70081
G1 X66.149 Y59.057 E19.71181
G1 X66.661 Y58.854 E19.7228
G1 X67.197 Y58.726 E19.7338
G1 X67.731 Y58.678 E19.7445
G1 X70.654 Y58.62 E19.80284
G1 X73.444 Y58.502 E19.85857
G1 X76.127 Y58.312 E19.91225
G1 X78.829 Y58.044 E19.96643
G1 X81.53 Y57.698 E20.02077
G1 X84.589 Y57.214 E20.08258
G1 X85.395 Y57.16 E20.0987
G1 X87.519 Y57.158 E20.14109
G1 X88.217 Y57.168 E20.15502
G1 X88.749 Y57.213 E20.16567
G0 F3600 X88.012 Y61.118
;TYPE:SUPPORT
G1 F1800 X88.012 Y62.242 E20.1881
G1 X88.388 Y62.618 E20.19871
G1 X105.4 Y62.618 E20.53821
G1 X105.395 Y63.347 E20.55275
G1 X105.412 Y63.715 E20.56011
G1 X105.406 Y64.424 E20.57426
G1 X105.419 Y64.813 E20.58202
G1 X105.413 Y65.438 E20.5945
G1 X105.184 Y65.378 E20.59922
G1 X104.621 Y65.378 E20.61046
G1 X104.621 Y64.378 E20.63041
G1 X68.726 Y64.378 E21.34674
G1 X68.726 Y65.378 E21.36669
G1 X68.171 Y65.378 E21.37777
G1 X67.933 Y65.439 E21.38267
G1 X67.927 Y64.826 E21.3949
G1 X67.94 Y64.435 E21.40271
G1 X67.932 Y63.671 E21.41796
G1 X67.943 Y63.335 E21.42467
G1 X67.943 Y62.626 E21.43882
G1 X67.944 Y62.618 E21.43898
G1 X84.956 Y62.618 E21.77847
G1 X85.332 Y62.242 E21.78908
G1 X85.332 Y61.118 E21.81151
G1 X88.012 Y61.118 E21.86499
G0 F3600 X87.892 Y61.341
G1 F1800 X85.452 Y61.341 E21.91369
G0 F3600 X85.344 Y62.4
G1 F1800 X85.344 Y64.258 E21.95077
G0 F3600 X82.677 Y64.258
G1 F1800 X82.677 Y62.738 E21.9811
G0 F3600 X80.01 Y62.738
G1 F1800 X80.01 Y64.258 E22.01143
G0 F3600 X77.343 Y64.258
G1 F1800 X77.343 Y62.738 E22.04176
G0 F3600 X74.676 Y62.738
G1 F1800 X74.676 Y64.258 E22.0721
G0 F3600 X72.009 Y64.258
G1 F1800 X72.009 Y62.738 E22.10243
G0 F3600 X69.342 Y62.738
G1 F1800 X69.342 Y64.258 E22.13276
G0 F3600 X68.055 Y64.008
G1 F1800 X105.289 Y64.008 E22.87581
G0 F3600 X104.013 Y64.258
G1 F1800 X104.013 Y62.738 E22.90614
G0 F3600 X101.346 Y62.738
G1 F1800 X101.346 Y64.258 E22.93648
G0 F3600 X98.679 Y64.258
G1 F1800 X98.679 Y62.738 E22.96681
G0 F3600 X96.012 Y62.738
G1 F1800 X96.012 Y64.258 E22.99714
G0 F3600 X93.345 Y64.258
G1 F1800 X93.345 Y62.738 E23.02748
G0 F3600 X90.678 Y62.738
G1 F1800 X90.678 Y64.258 E23.05781
G0 F3600 X88.011 Y64.258
G1 F1800 X88.011 Y62.411 E23.09467
G1 F3600 E19.09467
G0 F3600 X104.114 Y64.885
G0 X111.85 Y124.137
G1 F3600 E23.09467
G1 F1800 X149.384 Y124.137 E23.8437
G1 X149.4 Y123.942 E23.8476
G1 X149.404 Y124.425 E23.85724
G1 X149.392 Y124.791 E23.86455
G1 X149.397 Y125.39 E23.8765
G1 X149.387 Y125.696 E23.88261
G1 X132.345 Y125.696 E24.22271
G1 X131.969 Y126.072 E24.23332
G1 X131.969 Y127.196 E24.25575
G1 X129.289 Y127.196 E24.30923
G1 X129.289 Y126.072 E24.33166
G1 X128.913 Y125.696 E24.34227
G1 X111.871 Y125.696 E24.68236
G1 X111.857 Y125.405 E24.68818
G1 X111.857 Y124.816 E24.69993
G1 X111.845 Y124.458 E24.70708
G1 X111.85 Y124.137 E24.71349
G0 F3600 X112.014 Y124.257
G1 F1800 X112.014 Y125.576 E24.73981
G0 F3600 X111.976 Y125.349
G1 F1800 X149.277 Y125.349 E25.48419
G0 F3600 X146.685 Y125.576
G1 F1800 X146.685 Y124.257 E25.51051
G0 F3600 X144.018 Y124.257
G1 F1800 X144.018 Y125.576 E25.53684
G0 F3600 X141.351 Y125.576
G1 F1800 X141.351 Y124.257 E25.56316
G0 F3600 X138.684 Y124.257
G1 F1800 X138.684 Y125.576 E25.58948
G0 F3600 X136.017 Y125.576
G1 F1800 X136.017 Y124.257 E25.6158
G0 F3600 X133.35 Y124.257
G1 F1800 X133.35 Y125.576 E25.64212
G0 F3600 X130.683 Y124.257
G1 F1800 X130.683 Y127.076 E25.69838
G0 F3600 X128.016 Y125.576
G1 F1800 X128.016 Y124.257 E25.7247
G0 F3600 X125.349 Y124.257
G1 F1800 X125.349 Y125.576 E25.75102
G0 F3600 X122.682 Y125.576
G1 F1800 X122.682 Y124.257 E25.77735
G0 F3600 X120.015 Y124.257
G1 F1800 X120.015 Y125.576 E25.80367
G0 F3600 X117.348 Y125.576
G1 F1800 X117.348 Y124.257 E25.82999
G0 F3600 X114.681 Y124.257
G1 F1800 X114.681 Y125.576 E25.85631
G0 F3600 X119.734 Y128.991
G1 F1800 X120.006 Y128.991 E25.86174
G1 X120.006 Y138.977 E26.06102
G1 X119.734 Y138.977 E26.06645
G1 X119.734 Y135.7 E26.13185
G1 X119.358 Y135.324 E26.14246
G1 X118.234 Y135.324 E26.16489
G1 X118.234 Y132.644 E26.21837
G1 X119.358 Y132.644 E26.2408
G1 X119.734 Y132.268 E26.25141
G1 X119.734 Y128.991 E26.31681
G0 F3600 X119.885 Y133.35
G1 F1800 X118.353 Y133.35 E26.34738
G0 F3600 X106.48 Y135.221
G1 F1800 X106.708 Y138.996 E26.42285
G1 X106.483 Y141.899 E26.48096
G1 X101.303 Y141.899 E26.58433
G1 X101.303 Y138.413 E26.6539
